X:210
T:The Dusty Miller
Z:Jack Campin, http://www.campin.me.uk/
F:Jack Campin's Nine-Note Tunebook
% last edit 03-02-2013
S:http://www.thesession.org/tunes/display/4323
M:9/8
L:1/8
Q:3/8=112
K:AMin
d|A3  A2G A2G |   A3  A2G B2  \
d|A3  A2G A2G |
               [1 BBB B2A B2:|\
               [2 B2G G2A B2||
d|A2D DDD A3  |   A2D DDD B2  \
d|A2D DDD G2A |
               [1 B2G G2A B2:|\
               [2 BBB B2A B2|]

